X:62
T:Shores of Lough Graney, The
R:reel
Z:Transcribed by Dave Marshall
M:C|
K:Emin
| BEED E2GE |EDB,E DEGA |BEED E2DE |GABG ABGA |
BEED E2GE |EDB,E DEGA| BEED E2DE |GABG AGED|
~G3F GBdB |c2AB cedc| BcBA GABd |dBGB AGEF|
~G3F GBdB |c2AB cdef |gedB cgge| dBGB A2GA |
